X: 0604
M: 2/2
L: 1/8
K: G
E2e2 e2dc | B2d2 d2ge | dBGB cAFA | G2G2G2 :|
|: D2 |\
E2e2 e2dc | B2d2 d2ge | dBGB cAFA | G2G2G2 :|

